packages/ffe-icons/icons/filled/md/bid_landscape_disabled.svg

<svg xmlns="http://www.w3.org/2000/svg" height="24" viewBox="0 -960 960 960" width="24"><path d="M721.846-140.001H212.309q-30.308 0-51.308-21t-21-51.308v-509.537l-81.385-81.385q-8.922-8.923-9.115-21.191-.192-12.269 9.116-21.577 9.307-9.307 21.384-9.307 12.076 0 21.384 9.307l744.614 744.614q8.923 8.923 9.115 20.885.192 11.96-9.115 21.268-9.308 9.308-21.384 9.308-12.077 0-21.384-9.308L721.846-140Zm98.153-607.69v418.922q0 24.308-22.193 33.654-22.192 9.346-39.269-7.731l-122-122L752.308-554.77q9.923-10.539 7.692-22.192-2.231-11.654-10.538-19.961-8.308-8.308-19.961-8.615-11.654-.308-22.192 10.845l-113.54 127.079-290.923-290.923q-17.077-17.077-7.731-39.269 9.346-22.193 33.654-22.193h418.922q30.308 0 51.308 21t21 51.308ZM364.616-461.232l143.231 143.231q7.692 7.692 17.807 7.384 10.115-.307 17.192-8.384L339.847-522 208.923-391.076q-10.538 10.539-9.423 22.5 1.115 11.961 9.423 20.269 8.307 8.307 20.269 9.422 11.961 1.116 22.499-9.422l112.925-112.925Z"/></svg>

<svg xmlns="http://www.w3.org/2000/svg" height="24" viewBox="0 -960 960 960" width="24"><path d="M721.85-140H212.31Q182-140 161-161q-21-21-21-51.31v-509.54l-81.38-81.38q-8.93-8.92-9.12-21.19-.19-12.27 9.12-21.58 9.3-9.31 21.38-9.31 12.08 0 21.38 9.31L846-101.38q8.92 8.92 9.11 20.88.2 11.96-9.11 21.27-9.31 9.31-21.39 9.31-12.07 0-21.38-9.31L721.85-140ZM820-747.69v418.92q0 24.31-22.19 33.65-22.2 9.35-39.27-7.73l-122-122 115.77-129.92q9.92-10.54 7.69-22.19-2.23-11.66-10.54-19.96-8.31-8.31-19.96-8.62-11.65-.31-22.19 10.85L593.77-467.61 302.85-758.54q-17.08-17.07-7.73-39.27Q304.46-820 328.77-820h418.92Q778-820 799-799q21 21 21 51.31ZM364.62-461.23 507.85-318q7.69 7.69 17.8 7.38 10.12-.3 17.2-8.38l-203-203-130.93 130.92q-10.54 10.54-9.42 22.5 1.12 11.97 9.42 20.27 8.31 8.31 20.27 9.43 11.96 1.11 22.5-9.43l112.93-112.92Z"/></svg>
